build/category/WikiSolid.svg

<svg xmlns="http://www.w3.org/2000/svg" fill="none" viewBox="0 0 24 24" focusable="false"><path d="M0 0H24V24H0z"/><path fill="#74767B" fill-rule="evenodd" d="M21 12C21 16.9706 16.9706 21 12 21C7.02944 21 3 16.9706 3 12C3 7.02944 7.02944 3 12 3C16.9706 3 21 7.02944 21 12ZM6.73192 8.74051C7.05655 8.58726 7.44395 8.7262 7.5972 9.05083L10.2539 14.6787L11.2812 12.5027L9.91367 9.60579C9.76042 9.28116 9.89935 8.89376 10.224 8.74051C10.5486 8.58726 10.936 8.7262 11.0893 9.05083L12 10.98L12.9107 9.05083C13.0639 8.7262 13.4513 8.58726 13.776 8.74051C14.1006 8.89376 14.2395 9.28116 14.0863 9.60579L12.7188 12.5027L13.746 14.6787L16.4028 9.05083C16.556 8.7262 16.9434 8.58726 17.268 8.74051C17.5927 8.89376 17.7316 9.28116 17.5784 9.60579L14.3338 16.4788C14.2264 16.7062 13.9975 16.8513 13.746 16.8513C13.4945 16.8513 13.2656 16.7062 13.1582 16.4788L12 14.0253L10.8417 16.4788C10.7344 16.7062 10.5054 16.8513 10.2539 16.8513C10.0024 16.8513 9.77351 16.7062 9.66615 16.4788L6.42161 9.60579C6.26836 9.28116 6.40729 8.89376 6.73192 8.74051Z"/></svg>

<svg xmlns="http://www.w3.org/2000/svg" fill="none" viewBox="0 0 24 24" focusable="false"><path fill="#74767B" fill-rule="evenodd" d="M21 12a9 9 0 0 1-9 9c-4.98 0-9-4.03-9-9 0-4.98 4.02-9 9-9 4.97 0 9 4.02 9 9M6.73 8.74c.32-.16.71-.02.86.31l2.66 5.62 1.03-2.17-1.37-2.9a.643.643 0 0 1 .31-.86c.32-.16.71-.02.86.31l.92 1.93.91-1.93c.15-.33.54-.47.86-.31.33.15.46.54.31.86l-1.37 2.9 1.03 2.17 2.66-5.62c.15-.33.54-.47.86-.31.33.15.47.54.31.86l-3.24 6.87a.66.66 0 0 1-.59.38.66.66 0 0 1-.59-.38L12 14.02l-1.16 2.45a.66.66 0 0 1-.59.38.66.66 0 0 1-.59-.38L6.42 9.6a.634.634 0 0 1 .31-.86"/></svg>
